dist/img/svg/tooltip.svg

<svg width="16" height="17" viewBox="0 0 16 17" fill="none" xmlns="http://www.w3.org/2000/svg">
<g opacity="0.4">
<path d="M8.00016 11.8334C8.18905 11.8334 8.3475 11.7694 8.4755 11.6414C8.6035 11.5134 8.66727 11.3552 8.66683 11.1667V8.50004C8.66683 8.31115 8.60283 8.15293 8.47483 8.02537C8.34683 7.89782 8.18861 7.83382 8.00016 7.83337C7.81172 7.83293 7.6535 7.89693 7.5255 8.02537C7.3975 8.15382 7.3335 8.31204 7.3335 8.50004V11.1667C7.3335 11.3556 7.3975 11.514 7.5255 11.642C7.6535 11.77 7.81172 11.8338 8.00016 11.8334ZM8.00016 6.50004C8.18905 6.50004 8.3475 6.43604 8.4755 6.30804C8.6035 6.18004 8.66727 6.02182 8.66683 5.83337C8.66639 5.64493 8.60239 5.48671 8.47483 5.35871C8.34727 5.23071 8.18905 5.16671 8.00016 5.16671C7.81127 5.16671 7.65305 5.23071 7.5255 5.35871C7.39794 5.48671 7.33394 5.64493 7.3335 5.83337C7.33305 6.02182 7.39705 6.18026 7.5255 6.30871C7.65394 6.43715 7.81216 6.50093 8.00016 6.50004ZM8.00016 15.1667C7.07794 15.1667 6.21128 14.9916 5.40016 14.6414C4.58905 14.2912 3.8835 13.8163 3.2835 13.2167C2.6835 12.6172 2.20861 11.9116 1.85883 11.1C1.50905 10.2885 1.33394 9.42182 1.3335 8.50004C1.33305 7.57826 1.50816 6.7116 1.85883 5.90004C2.2095 5.08849 2.68439 4.38293 3.2835 3.78337C3.88261 3.18382 4.58816 2.70893 5.40016 2.35871C6.21216 2.00849 7.07883 1.83337 8.00016 1.83337C8.9215 1.83337 9.78816 2.00849 10.6002 2.35871C11.4122 2.70893 12.1177 3.18382 12.7168 3.78337C13.3159 4.38293 13.7911 5.08849 14.1422 5.90004C14.4933 6.7116 14.6682 7.57826 14.6668 8.50004C14.6655 9.42182 14.4904 10.2885 14.1415 11.1C13.7926 11.9116 13.3177 12.6172 12.7168 13.2167C12.1159 13.8163 11.4104 14.2914 10.6002 14.642C9.78994 14.9927 8.92327 15.1676 8.00016 15.1667ZM8.00016 13.8334C9.48905 13.8334 10.7502 13.3167 11.7835 12.2834C12.8168 11.25 13.3335 9.98893 13.3335 8.50004C13.3335 7.01115 12.8168 5.75004 11.7835 4.71671C10.7502 3.68337 9.48905 3.16671 8.00016 3.16671C6.51127 3.16671 5.25016 3.68337 4.21683 4.71671C3.1835 5.75004 2.66683 7.01115 2.66683 8.50004C2.66683 9.98893 3.1835 11.25 4.21683 12.2834C5.25016 13.3167 6.51127 13.8334 8.00016 13.8334Z" fill="#04412B"/>
</g>
</svg>

<svg width="16" height="17" viewBox="0 0 16 17" fill="none" xmlns="http://www.w3.org/2000/svg"><path d="M8 11.833a.646.646 0 00.476-.192.643.643 0 00.19-.474V8.5a.643.643 0 00-.191-.475A.648.648 0 008 7.833a.641.641 0 00-.474.192.646.646 0 00-.192.475v2.667c0 .189.064.347.192.475a.643.643 0 00.474.191zM8 6.5a.646.646 0 00.476-.192.643.643 0 00.19-.475.648.648 0 00-.191-.474A.643.643 0 008 5.167a.643.643 0 00-.474.192.648.648 0 00-.192.474c0 .189.063.347.192.476A.64.64 0 008 6.5zm0 8.667a6.489 6.489 0 01-2.6-.526 6.742 6.742 0 01-2.117-1.424A6.717 6.717 0 011.86 11.1a6.506 6.506 0 01-.526-2.6c0-.922.175-1.788.526-2.6a6.748 6.748 0 011.425-2.117 6.705 6.705 0 012.116-1.424A6.494 6.494 0 018 1.833c.921 0 1.788.175 2.6.526.812.35 1.518.825 2.117 1.424.599.6 1.074 1.305 1.425 2.117s.526 1.678.525 2.6a6.536 6.536 0 01-.525 2.6 6.687 6.687 0 01-1.425 2.117 6.77 6.77 0 01-2.117 1.425c-.81.35-1.677.526-2.6.525zm0-1.334c1.49 0 2.75-.516 3.784-1.55 1.033-1.033 1.55-2.294 1.55-3.783 0-1.489-.517-2.75-1.55-3.783C10.75 3.683 9.489 3.167 8 3.167c-1.489 0-2.75.516-3.783 1.55C3.184 5.75 2.667 7.01 2.667 8.5c0 1.489.517 2.75 1.55 3.783C5.25 13.317 6.51 13.833 8 13.833z" fill="#04412B" opacity=".4"/></svg>
